X:2538
T:Redowa Polka
C:anon.
O:England
R:Polka
Z:C.G.P
F:http://abc.musicaviva.com/tunes/england/redowa-polka/redowa-polka.abc
%Posted at abcusers Jan 2nd 2001 by Johnny Adams.
M:2/4
L:1/16
Q:1/4=110
K:G
|:GBd2 d2d2|dedc B2B2|GAB2 GAB2|B2A2A4|ABc2 c2c2|cdcB A2A2|
FGA2 FGA2|A2G2G4::GBd2 g2d2|d2c2 cBc2|FAc2 f2e2|e2d2 d^cd2|
GBd2 g2d2|d2c2 cBc2|FAc2 f2e2|d2ef g4::\
K:C
G2Bc BcBc|A2^cd cdcd|
B2G2 A2B2|cBce a2g2|G2Bc BcBc|A2^cd cdcd|B2G2 A2B2|c2c2 c4:|
W:
W:
W:  From Musica Viva - http://www.musicaviva.com
W:  the Internet center for free sheet music downloads.
